X:1
T:Since He Came to Stay
T:Charles Davis Tillman
T:Since He Came to Stay
T:Public Domain
T:Public Domain
T:Public Domain
C:Charles Davis Tillman
Z:Public Domain
%%score ( 1 2 ) ( 3 4 )
L:1/8
M:4/4
K:Eb
V:1 treble 
V:2 treble 
V:3 bass 
V:4 bass 
V:1
 ([EG][EF]) | [B,E][B,E][EG][EB] [Ge]3 [EB] | ([Ec]/[Ec]/)[Ec] [Ee][Ee] [EB]3 [EB] | %3
w: 1.~If~you’ll *|list- en un- to me, A|story * to you I’ll tell, How|
w: 2.~Be- *|fore He came to stay I|had * my doubts and fears, I|
w: 3.~Yes, *|since my Sav- ior came With-|in * my heart to dwell, He|
 [Ge][Ge][Ge][GB] [Ac][GB][GB][EG] | (3([GB][GB])[GB] [GB]>[EG] [DF]3 (G/F/) | %5
w: Je- sus Christ the Son of God Came|in * my heart to dwell; And *|
w: longed to know the peace and joy I|felt * in o- ther years; Now *|
w: helps me learn the liv- ing way, And|do * His bless- èd will; And *|
 [B,E][B,E][EG][EB] [Ge]3 [EB] | [Ec][Ec] [Ee]>[Ec] [EB]3 [GB] | %7
w: His might- y power He’s changed|my night to day, And now|
w: tan is cast out, And ev-|ery pass- ing day God gives|
w: at last He sees My work|on earth is done, I’ll then|
 [Ge]([Ge]/[Ge]/) [Ge][GB] [Ac][GB][GB][EG] | [EB]<[EG] [DF][DG] E2 ||"^Refrain" (GF) | %10
w: I’ve~a life * that’s filled with joy, Since Je-|sus came to stay. *||
w: me strength * my foes to meet, Since Je-|sus came to stay. I|the *|
w: go shout- * ing home to God, To~re- ceive|the crown I’ve won. *||
 [B,E][B,E][EG][EB] [Ge]3 [EB] | [Ec][Ec][Ee][Ee] [EB]3 [EB] | [Ge][Ge][Ge][GB] [Ac][GB][GB][EG] | %13
w: |||
w: py day When Je- sus came|to stay, And tho’ my sins|were crim- son red, He’s tak- en them|
w: |||
 (3[GB][GB][GB] [GB]>[EG] [DF]3 (G/F/) | [B,E][B,E][EG][EB] [Ge]3 [EB] | %15
w: ||
w: all a- way; And by His might- *|power, He’s changed my night to|
w: ||
 [Ec][Ec] [Ee]>[Ec] [EB]3 [GB] | [Ge][Ge]/[Ge]/ [Ge][GB] [Ac][GB][GB][EG] | %17
w: ||
w: day, And now I’ve a life|that’s filled with joy, Since Je- sus came to|
w: ||
 [EB]<[EG] [DF][DG] E2 |] %18
w: |
w: stay. * * * *|
w: |
V:2
 x2 | x8 | x8 | x8 | x7 D | x8 | x8 | x8 | x4 E2 || E2 | x8 | x8 | x8 | x7 D | x8 | x8 | x8 | %17
w: ||||by|||||||||||||
w: ||||Sa-||||bless|hap-||||y||||
w: ||||when|||||||||||||
 x4 E2 |] %18
w: |
w: |
w: |
V:3
 ([E,B,][E,A,]) | [E,G,][E,G,][E,B,][E,B,] [E,B,]3 [E,G,] | %2
 ([A,,A,]/[A,,A,]/)[A,,A,] [A,,C][C,A,] [E,G,]3 [E,G,] | %3
 [E,B,][E,B,][E,B,][E,E] [E,E][E,E][E,E][E,B,] | [E,E][E,E] [E,E]>[E,B,] [B,,B,]3 (B,/A,/) | %5
 [E,G,][E,G,][E,B,][E,G,] [E,B,]3 [F,A,] | [A,,A,][A,,A,] [A,,C]>[C,A,] [E,G,]3 [E,E] | %7
 [E,B,]([E,B,]/[E,B,]/) [E,B,][E,E] [E,E][E,E][E,E][E,B,] | %8
 [B,,G,]<[B,,B,] [B,,A,][B,,B,] [E,G,]2 || (B,A,) | [E,G,][E,G,][E,B,][E,G,] [E,B,]3 [E,G,] | %11
 [A,,A,][A,,A,][A,,C][C,A,] [E,G,]3 [E,G,] | [E,B,][E,B,][E,B,][E,E] [E,E][E,E][E,B,][E,B,] | %13
 (3([E,E][E,E])[E,E] [E,E]>[E,B,] [B,,B,]3 (B,/A,/) | [E,G,][E,G,][E,B,][E,G,] [E,B,]3 [F,A,] | %15
 [A,,A,][A,,A,] [A,,C]>[C,A,] [E,G,]3 [E,E] | %16
 [E,B,][E,B,]/[E,B,]/ [E,B,][E,E] [E,E][E,E][E,E][E,B,] | [B,,G,]<[B,,B,] [B,,A,][B,,B,] [E,G,]2 |] %18
V:4
 x2 | x8 | x8 | x8 | x7 B,, | x8 | x8 | x8 | x6 || E,2 | x8 | x8 | x8 | x7 B,, | x8 | x8 | x8 | %17
 x6 |] %18

